X: 75
T: PROUD'S
%R: reel
B: Jean White "100 Popular Hornpipes, Reels, Jigs and Country Dances", Boston 1880 p.32
F: http://www.loc.gov/resource/sm1880.09124.0#seq-1
Z: 2014 John Chambers <jc:trillian.mit.edu>
M: C|
L: 1/8
K: G
% - - - - - - - - - - - - - - - - - - - - - - - - - - - - -
c2 |\
Bcdc BGgd | BcdB A=FcA |\
Bcdc BGge | dBcA G2 :|
|: c2 |\
BGBd A=FAc | BGBd gedc |\
BGBd A=FAc | (3Bcd (3cBA G2 :|
|:\
c2 |\
(3Bcd dd ddgb | (3ABc cc ccfa |\
(3Bcd dd ddgb | (3agf (3gfe d2 :|
|: c2 |\
(3Bcd BG (3ABc AF | GABc dgdc |\
(3Bcd BG (3ABc AF | GcBA G2 H:|
% - - - - - - - - - - - - - - - - - - - - - - - - - - - - -

%%sep 1 1 500
%%sep 1 1 500
